assets/svg/123-C.svg

<?xml version="1.0" encoding="utf-8"?>
<svg xmlns="http://www.w3.org/2000/svg" version="1.1" x="0px" y="0px" xml:space="preserve" width="72.667" height="72.666" viewBox="2.346 -74.604 72.667 72.666">
	<g>
		<rect x="2.346" y="-74.604" style="fill:none;" width="72.667" height="72.666"/>
		<path style="fill:none;stroke:#00AEEF;stroke-width:0.5;" d="M7.625-73.812c1.442-0.481,1.5,2.25,0.25,2.75    S6.5-73.438,7.625-73.812z"/>
		<path style="fill:none;stroke:#00AEEF;stroke-width:0.5;" d="M12.875-73.312c0.573-1.031,3.125,0.375,1.75,1.625    S12.25-72.188,12.875-73.312z"/>
		<path style="fill:none;stroke:#00AEEF;stroke-width:0.5;" d="M20.125-70.938c0.956,1.529,1.375,3.375-0.875,2.5    S19.5-71.938,20.125-70.938z"/>
		<path style="fill:none;stroke:#00AEEF;stroke-width:0.5;" d="M25.125-72.312c-1.108,0.317-1.25,3,1.125,3S26-72.562,25.125-72.312    z"/>
		<path style="fill:none;stroke:#00AEEF;stroke-width:0.5;" d="M33-74.188c0.805-0.644,2.25,1.75,0.375,2.375    S32.375-73.688,33-74.188z"/>
		<path style="fill:none;stroke:#00AEEF;stroke-width:0.5;" d="M43.125-73.938c-2.214,0.316-1.125,2.5,0.5,2.25    S44.875-74.188,43.125-73.938z"/>
		<path style="fill:none;stroke:#00AEEF;stroke-width:0.5;" d="M4.375-66.688c0.462-1.056,2.375,0,1.75,1.25    S3.5-64.688,4.375-66.688z"/>
		<path style="fill:none;stroke:#00AEEF;stroke-width:0.5;" d="M9.125-60.188c-1.303,1.195,0.25,3.375,1.5,2.25    S10.625-61.562,9.125-60.188z"/>
		<path style="fill:none;stroke:#00AEEF;stroke-width:0.5;" d="M2.875-44.688c0.422-1.856,2.625,0.75,1.75,2    S2.25-41.938,2.875-44.688z"/>
		<path style="fill:none;stroke:#00AEEF;stroke-width:0.5;" d="M8.375-52.688c1.064-1.064,2.625,0.25,1.125,2    S7.75-52.062,8.375-52.688z"/>
		<path style="fill:none;stroke:#00AEEF;stroke-width:0.5;" d="M51.25-73.062c1.662-0.831,1.875,1.75,0.625,2.5    S50.25-72.562,51.25-73.062z"/>
		<path style="fill:none;stroke:#00AEEF;stroke-width:0.5;" d="M59.25-72.188c1.348-0.27,2.375,1.875,0.625,2.5    S58-71.938,59.25-72.188z"/>
		<path style="fill:none;stroke:#00AEEF;stroke-width:0.5;" d="M3.125-38.688c0.454-1.059,1.375-1,1.625,0.875    S2-36.062,3.125-38.688z"/>
		<path style="fill:none;stroke:#00AEEF;stroke-width:0.5;" d="M3.75-31.188c0.333-1.556,2.5-1.375,2.375,0.375    S3.375-29.438,3.75-31.188z"/>
		<path style="fill:none;stroke:#00AEEF;stroke-width:0.5;" d="M5.75-23.562c1.659-1.541,2.75,1.875,1.25,2.25S4-21.938,5.75-23.562    z"/>
		<path style="fill:none;stroke:#00AEEF;stroke-width:0.5;" d="M5.75-16.688c1.192-1.49,2.375,0.875,1.25,1.875    S4.75-15.438,5.75-16.688z"/>
		<path style="fill:none;stroke:#00AEEF;stroke-width:0.5;" d="M13.016-22.943c1.285-2.013,1.93,0.295,1.822,2.06    C14.731-19.12,11.547-20.642,13.016-22.943z"/>
		<path style="fill:none;stroke:#00AEEF;stroke-width:0.5;" d="M71.666-73.496c0.738-2.215,2.375,1.25,0.875,2.625    S71.166-71.996,71.666-73.496z"/>
		<path style="fill:none;stroke:#00AEEF;stroke-width:0.5;" d="M69.062-66.062c1.459-0.104,1.875,2,0.5,2.625    S67.312-65.938,69.062-66.062z"/>
		<path style="fill:none;stroke:#00AEEF;stroke-width:0.5;" d="M72.416-59.938c-1.262,1.104,0.125,3.375,1.25,2.125    S73.416-60.812,72.416-59.938z"/>
		<path style="fill:none;stroke:#00AEEF;stroke-width:0.5;" d="M72.791-53.938c1.227-1.073,2.125,2.5,0.75,2.875    S71.791-53.062,72.791-53.938z"/>
		<path style="fill:none;stroke:#00AEEF;stroke-width:0.5;" d="M70.166-47.562c1.791-0.21,1.375,2.875,0.125,3.125    S68.041-47.312,70.166-47.562z"/>
		<path style="fill:none;stroke:#00AEEF;stroke-width:0.5;" d="M70.291-39.562c1.486,0.496,1.125,3.75-0.5,2.625    S69.541-39.812,70.291-39.562z"/>
		<path style="fill:none;stroke:#00AEEF;stroke-width:0.5;" d="M69.166-32.688c1.46,0.973-3.125,3.875-2.375,1.25    S68.416-33.188,69.166-32.688z"/>
		<path style="fill:none;stroke:#00AEEF;stroke-width:0.5;" d="M72.541-27.438c-1.332,0.888-1,4.375,0.5,3    S73.666-28.188,72.541-27.438z"/>
		<path style="fill:none;stroke:#00AEEF;stroke-width:0.5;" d="M70.791-19.938c1.714,0.514,2.25,2.875,0.375,2.875    S69.541-20.312,70.791-19.938z"/>
		<path style="fill:none;stroke:#00AEEF;stroke-width:0.5;" d="M72.416-12.438c1.5-0.75,1.75,2.375,0.375,3    S70.666-11.562,72.416-12.438z"/>
		<path style="fill:none;stroke:#00AEEF;stroke-width:0.5;" d="M15.75-65.688c1.593,0.956,1.75,3.875,0,3.25    S15.125-66.062,15.75-65.688z"/>
		<path style="fill:none;stroke:#00AEEF;stroke-width:0.5;" d="M30.875-66.062c1.179-0.131,1.625,2.875,0.25,2.875    S29.75-65.938,30.875-66.062z"/>
		<path style="fill:none;stroke:#00AEEF;stroke-width:0.5;" d="M37-68.812c1.912,0,2.125,3,0.375,2.875S35.5-68.812,37-68.812z"/>
		<path style="fill:none;stroke:#00AEEF;stroke-width:0.5;" d="M46.375-68.312c1.989,0.498,0.375,3.625-0.875,2.75    S44.875-68.688,46.375-68.312z"/>
		<path style="fill:none;stroke:#00AEEF;stroke-width:0.5;" d="M55.75-66.938c1.586,0.353,1.25,2.75-0.125,2.75    S54.625-67.188,55.75-66.938z"/>
		<path style="fill:none;stroke:#00AEEF;stroke-width:0.5;" d="M63.188-63.188c2.021,0.735,1.625,4.375-0.625,3.75    S61.812-63.688,63.188-63.188z"/>
		<path style="fill:none;stroke:#00AEEF;stroke-width:0.5;" d="M66.625-55.938c1.003-0.1,1.25,2.5,0,3S65.375-55.812,66.625-55.938z    "/>
		<path style="fill:none;stroke:#00AEEF;stroke-width:0.5;" d="M50.5-62.188c1.125-0.375,2,2,0.375,2.625S49-61.688,50.5-62.188z"/>
		<path style="fill:none;stroke:#00AEEF;stroke-width:0.5;" d="M10.875-8.375c1.198-0.719,2.75,1.875,1.625,2.75    S9.625-7.625,10.875-8.375z"/>
		<path style="fill:none;stroke:#00AEEF;stroke-width:0.5;" d="M3.75-7.25c1.009-2.692,2.5,2.375,1,2.875S3-5.25,3.75-7.25z"/>
		<path style="fill:none;stroke:#00AEEF;stroke-width:0.5;" d="M19.875-5.875C20.434-6.993,22.75-3,21.5-2.5    S19.125-4.375,19.875-5.875z"/>
		<path style="fill:none;stroke:#00AEEF;stroke-width:0.5;" d="M31.625-8.375c1.114-0.159,1.75,2.875,0,3S30.75-8.25,31.625-8.375z"/>
		<path style="fill:none;stroke:#00AEEF;stroke-width:0.5;" d="M51.125-7.75C52.404-9.226,53-4.875,51.75-4.375    S49.5-5.875,51.125-7.75z"/>
		<path style="fill:none;stroke:#00AEEF;stroke-width:0.5;" d="M59.25-6.75c-1.085,0.62-1.625,3.5,0.5,2.75S60.125-7.25,59.25-6.75z    "/>
		<path style="fill:none;stroke:#00AEEF;stroke-width:0.5;" d="M65.625-5.25c0.57-1.14,2.125,0.375,1.75,1.75    S64.375-2.75,65.625-5.25z"/>
		<path style="fill:none;stroke:#00AEEF;stroke-width:0.5;" d="M39.375-7c1.287,0.483,2.625-2.875,1-3.5S38.375-7.375,39.375-7z"/>
		<path style="fill:none;stroke:#00AEEF;stroke-width:0.5;" d="M45.375-9.25c1.076-0.414,2.25,2.75,0.875,3S43.75-8.625,45.375-9.25    z"/>
		<path style="fill:none;stroke:#00AEEF;stroke-width:0.5;" d="M25.375-10.875c1.469-0.326,2.25,4,0.5,4.125    S24.25-10.625,25.375-10.875z"/>
		<path style="fill:none;stroke:#00AEEF;stroke-width:0.5;" d="M39.5-25.188c0.838-0.251,1.75,1.375,1.25,2.5s-0.5,1.25-1.125,1.5    S38.25-24.812,39.5-25.188z"/>
		<path style="fill:none;stroke:#00AEEF;stroke-width:0.5;" d="M45.375-16.812c1,1,1.5,3.25-0.5,2.375S45.375-16.812,45.375-16.812z    "/>
		<path style="fill:none;stroke:#00AEEF;stroke-width:0.5;" d="M35-16.438c0.585-0.961,2,1.125,1.5,1.875S33.25-13.562,35-16.438z"/>
		<path style="fill:none;stroke:#00AEEF;stroke-width:0.5;" d="M28.75-18.812c1.481,0.906,0.5,2.5-1.25,2.125    S26.5-20.188,28.75-18.812z"/>
		<path style="fill:none;stroke:#00AEEF;stroke-width:0.5;" d="M20-15.812c1.475-0.369,1.75,1.75,0.5,2.375S19-15.562,20-15.812z"/>
		<path style="fill:none;stroke:#00AEEF;stroke-width:0.5;" d="M13.625-14.562c1.269-0.211,1.125,3.5-0.625,2.625    S12.875-14.438,13.625-14.562z"/>
		<path style="fill:none;stroke:#00AEEF;stroke-width:0.5;" d="M19.75-23.562c0.538-0.922,2-0.125,1.125,1.375    S18.875-22.062,19.75-23.562z"/>
		<path style="fill:none;stroke:#00AEEF;stroke-width:0.5;" d="M31-39.312c0.538-0.922,2-0.125,1.125,1.375S30.125-37.812,31-39.312    z"/>
		<path style="fill:none;stroke:#00AEEF;stroke-width:0.5;" d="M64.75-70.312c0.538-0.922,2-0.125,1.125,1.375    S63.875-68.812,64.75-70.312z"/>
		<path style="fill:none;stroke:#00AEEF;stroke-width:0.5;" d="M26.125-26.438c1.352,0,0.75,3.5-0.5,3.25S25.5-26.438,26.125-26.438    z"/>
		<path style="fill:none;stroke:#00AEEF;stroke-width:0.5;" d="M64.75-14.938c2.062-0.515,2.25,3.125,0.625,3.875    S63.75-14.688,64.75-14.938z"/>
		<path style="fill:none;stroke:#00AEEF;stroke-width:0.5;" d="M57.25-19.625c1.353-0.557,2.75,1,1.375,2.375    S55.125-18.75,57.25-19.625z"/>
		<path style="fill:none;stroke:#00AEEF;stroke-width:0.5;" d="M51-22.312c1.583,0.235,0.875,2.875-0.25,3.375    S47.625-22.812,51-22.312z"/>
		<path style="fill:none;stroke:#00AEEF;stroke-width:0.5;" d="M65.75-23.312c0.92-1.022,2.375,2.875,0.875,3.125    S64.625-22.062,65.75-23.312z"/>
		<path style="fill:none;stroke:#00AEEF;stroke-width:0.5;" d="M60.875-28.062c1.284-0.405,1.5,2.125,0.625,3.25    S58.5-27.312,60.875-28.062z"/>
		<path style="fill:none;stroke:#00AEEF;stroke-width:0.5;" d="M52.875-29.062c2.352,1.045,0.25,3.875-1.25,2.875    S51.75-29.562,52.875-29.062z"/>
		<path style="fill:none;stroke:#00AEEF;stroke-width:0.5;" d="M58.625-35.188c1.667,0,1.25,2.375-0.125,3.125    S57.5-35.188,58.625-35.188z"/>
		<path style="fill:none;stroke:#00AEEF;stroke-width:0.5;" d="M63.25-43.812c1.707,0.996,0.375,3.625-1.25,3.5    S61.75-44.688,63.25-43.812z"/>
		<path style="fill:none;stroke:#00AEEF;stroke-width:0.5;" d="M45.125-27.688c0.875-1.75,1.875-0.75,2.125,1.25    S43.875-25.188,45.125-27.688z"/>
		<path style="fill:none;stroke:#00AEEF;stroke-width:0.5;" d="M49.25-37.438c1.554-0.888,2.75,2.375,1.25,2.875    S47.5-36.438,49.25-37.438z"/>
		<path style="fill:none;stroke:#00AEEF;stroke-width:0.5;" d="M42.375-37.438c1.936,0.258,1.5,2.125,0.25,2.5    S40.5-37.688,42.375-37.438z"/>
		<path style="fill:none;stroke:#00AEEF;stroke-width:0.5;" d="M54.625-44.188c1.539-0.577,2.25,2.75,0.75,3    S53.625-43.812,54.625-44.188z"/>
		<path style="fill:none;stroke:#00AEEF;stroke-width:0.5;" d="M32.75-26.438c1.364-0.728,2.375,2.625,1.125,3.25    S30.875-25.438,32.75-26.438z"/>
		<path style="fill:none;stroke:#00AEEF;stroke-width:0.5;" d="M37.5-33.812c1.543-0.386,1.5,2.5,0.375,3S35-33.188,37.5-33.812z"/>
		<path style="fill:none;stroke:#00AEEF;stroke-width:0.5;" d="M11.375-31.938c0.943-1.415,3.125,0.375,2.125,1.625    S10.125-30.062,11.375-31.938z"/>
		<path style="fill:none;stroke:#00AEEF;stroke-width:0.5;" d="M17.625-30.438c1.14-0.57,2,1.875,0.75,2.5    S16.625-29.938,17.625-30.438z"/>
		<path style="fill:none;stroke:#00AEEF;stroke-width:0.5;" d="M55.625-13.062c1.14-0.57,2,1.875,0.75,2.5    S54.625-12.562,55.625-13.062z"/>
		<path style="fill:none;stroke:#00AEEF;stroke-width:0.5;" d="M27.75-34.438c1.235-0.617,2,2.625,0.875,3.375    S25.5-33.312,27.75-34.438z"/>
		<path style="fill:none;stroke:#00AEEF;stroke-width:0.5;" d="M9.875-38.938c1.008-1.008,1.75,1,0.75,2.375    S8.125-37.188,9.875-38.938z"/>
		<path style="fill:none;stroke:#00AEEF;stroke-width:0.5;" d="M18.375-38.812c0.57-0.97,1.625,1.625,0.75,2.375    S17.125-36.688,18.375-38.812z"/>
		<path style="fill:none;stroke:#00AEEF;stroke-width:0.5;" d="M36.625-43.438c0.524-0.655,1.5,2.125,0.375,2.75    S35.625-42.188,36.625-43.438z"/>
		<path style="fill:none;stroke:#00AEEF;stroke-width:0.5;" d="M46.25-43.938c0.984-0.179,2,2.375,0.5,2.75    S44.875-43.688,46.25-43.938z"/>
		<path style="fill:none;stroke:#00AEEF;stroke-width:0.5;" d="M61.75-50.562c1.889-0.236,1.875,3,0.375,3.25    S60.75-50.438,61.75-50.562z"/>
		<path style="fill:none;stroke:#00AEEF;stroke-width:0.5;" d="M57.875-57.562c1.274,0.182,1.5,3.25-0.25,3.125    S57-57.688,57.875-57.562z"/>
		<path style="fill:none;stroke:#00AEEF;stroke-width:0.5;" d="M51.625-50.188c0.988-0.988,2,1.625,0.75,2.375    S50.75-49.312,51.625-50.188z"/>
		<path style="fill:none;stroke:#00AEEF;stroke-width:0.5;" d="M30.25-46.812c0.737-0.676,1.625,1.375,0.625,2.5    S28.75-45.438,30.25-46.812z"/>
		<path style="fill:none;stroke:#00AEEF;stroke-width:0.5;" d="M24.125-43.562c1.471-0.98,1.875,2.25,1,2.875    S22.625-42.562,24.125-43.562z"/>
		<path style="fill:none;stroke:#00AEEF;stroke-width:0.5;" d="M18.5-47.688c1.166,0.179,1.5,2,0.25,2.75S16.875-47.938,18.5-47.688    z"/>
		<path style="fill:none;stroke:#00AEEF;stroke-width:0.5;" d="M11.75-46.438c1.026-0.724,2,2.75,0.75,3.5    S9.625-44.938,11.75-46.438z"/>
		<path style="fill:none;stroke:#00AEEF;stroke-width:0.5;" d="M44.875-50.062c0.758-0.664,2.375,1.625,0.625,2.25    S43.875-49.188,44.875-50.062z"/>
		<path style="fill:none;stroke:#00AEEF;stroke-width:0.5;" d="M46.5-57.562c0.98-0.196,1.75,2,0.25,2.375S45.25-57.312,46.5-57.562    z"/>
		<path style="fill:none;stroke:#00AEEF;stroke-width:0.5;" d="M42.5-62.938c1.465-1.326,1,3,0.5,2.875S39.875-60.562,42.5-62.938z"/>
		<path style="fill:none;stroke:#00AEEF;stroke-width:0.5;" d="M36.625-60.438c0.857-0.214,1.25,2.125,0.25,2.75    S35.625-60.188,36.625-60.438z"/>
		<path style="fill:none;stroke:#00AEEF;stroke-width:0.5;" d="M39.875-52.312c1.612-0.322,1.5,1.75,0.375,2.5    S38.625-52.062,39.875-52.312z"/>
		<path style="fill:none;stroke:#00AEEF;stroke-width:0.5;" d="M33.875-53.562c1.208-0.322,1.5,1.375,0.375,2.25    S32-53.062,33.875-53.562z"/>
		<path style="fill:none;stroke:#00AEEF;stroke-width:0.5;" d="M16.875-57.438c1.115,0.075,1.125,3.125-0.25,3.25    S15-57.562,16.875-57.438z"/>
		<path style="fill:none;stroke:#00AEEF;stroke-width:0.5;" d="M23-53.562c1.664-0.555,1.5,2.5,0.25,2.875S22.25-53.312,23-53.562z"/>
		<path style="fill:none;stroke:#00AEEF;stroke-width:0.5;" d="M29.75-58.812c1.278,0.15,1.25,3.25-0.25,3.5    S27.625-59.062,29.75-58.812z"/>
		<path style="fill:none;stroke:#00AEEF;stroke-width:0.5;" d="M23-62.938c0.983-0.772,1.875,2.25,0.625,3.125    S21.25-61.562,23-62.938z"/>
	</g>
</svg>

<svg xmlns="http://www.w3.org/2000/svg" xml:space="preserve" width="72.67" height="72.67" viewBox="2.35 -74.6 72.67 72.67"><path d="M2.35-74.6h72.67v72.67H2.35z" style="fill:none"/><path d="M7.63-73.81c1.44-.48 1.5 2.25.25 2.75s-1.38-2.38-.25-2.75zM12.88-73.31c.57-1.03 3.12.37 1.74 1.62s-2.37-.5-1.74-1.62zM20.13-70.94c.95 1.53 1.37 3.38-.88 2.5s.25-3.5.88-2.5zM25.13-72.31c-1.11.32-1.25 3 1.12 3s-.25-3.25-1.13-3zM33-74.19c.8-.64 2.25 1.75.38 2.38s-1-1.88-.38-2.38zM43.13-73.94c-2.22.32-1.13 2.5.5 2.25s1.24-2.5-.5-2.25zM4.38-66.69c.46-1.05 2.37 0 1.75 1.25s-2.63.75-1.75-1.25zM9.13-60.19c-1.3 1.2.24 3.38 1.5 2.25s0-3.62-1.5-2.25zM2.88-44.69c.42-1.85 2.62.75 1.75 2s-2.38.75-1.75-2zM8.38-52.69c1.06-1.06 2.62.25 1.12 2s-1.75-1.37-1.13-2zM51.25-73.06c1.66-.83 1.88 1.75.63 2.5s-1.63-2-.63-2.5zM59.25-72.19c1.35-.27 2.38 1.88.63 2.5s-1.88-2.25-.63-2.5zM3.13-38.69c.45-1.06 1.37-1 1.62.88S2-36.06 3.12-38.7zM3.75-31.19c.33-1.55 2.5-1.37 2.38.38s-2.75 1.37-2.38-.38zM5.75-23.56C7.41-25.1 8.5-21.7 7-21.31s-3-.63-1.25-2.25zM5.75-16.69c1.2-1.49 2.38.88 1.25 1.88s-2.25-.63-1.25-1.88zM13.02-22.94c1.28-2.02 1.93.3 1.82 2.06-.1 1.76-3.3.24-1.82-2.06zM71.67-73.5c.73-2.21 2.37 1.25.87 2.63s-1.37-1.13-.87-2.63zM69.06-66.06c1.46-.1 1.88 2 .5 2.62s-2.25-2.5-.5-2.62zM72.42-59.94c-1.27 1.1.12 3.38 1.25 2.13s-.25-3-1.25-2.13zM72.8-53.94c1.22-1.07 2.12 2.5.74 2.88s-1.75-2-.75-2.88zM70.17-47.56c1.79-.21 1.37 2.87.12 3.12s-2.25-2.87-.12-3.12zM70.3-39.56c1.48.5 1.12 3.75-.5 2.62s-.26-2.87.5-2.62zM69.17-32.69c1.46.97-3.13 3.88-2.38 1.25s1.63-1.75 2.38-1.25zM72.54-27.44c-1.33.89-1 4.38.5 3s.63-3.75-.5-3zM70.8-19.94c1.7.52 2.24 2.88.37 2.88s-1.63-3.25-.38-2.88zM72.42-12.44c1.5-.75 1.75 2.38.37 3s-2.12-2.12-.37-3zM15.75-65.69c1.6.96 1.75 3.88 0 3.25s-.63-3.62 0-3.25zM30.88-66.06c1.17-.13 1.62 2.87.25 2.87s-1.38-2.75-.25-2.87zM37-68.81c1.91 0 2.13 3 .38 2.87S35.5-68.8 37-68.8zM46.38-68.31c1.98.5.37 3.62-.88 2.75s-.63-3.13.88-2.75zM55.75-66.94c1.59.35 1.25 2.75-.13 2.75s-1-3 .13-2.75zM63.19-63.19c2.02.74 1.62 4.38-.63 3.75s-.75-4.25.63-3.75zM66.63-55.94c1-.1 1.25 2.5 0 3s-1.25-2.87 0-3zM50.5-62.19c1.13-.37 2 2 .38 2.63S49-61.7 50.5-62.2zM10.88-8.38c1.2-.71 2.74 1.88 1.62 2.76s-2.88-2-1.63-2.75zM3.75-7.25c1-2.7 2.5 2.38 1 2.88s-1.75-.88-1-2.88zM19.88-5.88C20.43-6.99 22.75-3 21.5-2.5s-2.38-1.88-1.63-3.38zM31.63-8.38c1.1-.15 1.75 2.88 0 3s-.88-2.87 0-3zM51.13-7.75c1.27-1.48 1.87 2.88.62 3.38s-2.25-1.5-.63-3.38zM59.25-6.75c-1.08.62-1.63 3.5.5 2.75s.38-3.25-.5-2.75zM65.63-5.25c.57-1.14 2.12.38 1.75 1.75s-3 .75-1.75-1.75zM39.38-7c1.28.48 2.62-2.88 1-3.5s-2 3.13-1 3.5zM45.38-9.25c1.07-.41 2.24 2.75.87 3s-2.5-2.38-.88-3zM25.38-10.88c1.46-.32 2.25 4 .5 4.13s-1.63-3.88-.5-4.13zM39.5-25.19c.84-.25 1.75 1.38 1.25 2.5s-.5 1.25-1.13 1.5-1.37-3.62-.12-4zM45.38-16.81c1 1 1.5 3.25-.5 2.37s.5-2.37.5-2.37zM35-16.44c.58-.96 2 1.13 1.5 1.88s-3.25 1-1.5-1.88zM28.75-18.81c1.48.9.5 2.5-1.25 2.12s-1-3.5 1.25-2.12zM20-15.81c1.48-.37 1.75 1.75.5 2.37S19-15.56 20-15.8zM13.63-14.56c1.26-.21 1.12 3.5-.63 2.62s-.13-2.5.63-2.62zM19.75-23.56c.54-.92 2-.13 1.13 1.37s-2 .13-1.13-1.37zM31-39.31c.54-.92 2-.13 1.13 1.37s-2 .13-1.13-1.37zM64.75-70.31c.54-.92 2-.13 1.13 1.37s-2 .13-1.13-1.37zM26.13-26.44c1.35 0 .75 3.5-.5 3.25s-.13-3.25.5-3.25zM64.75-14.94c2.06-.51 2.25 3.13.63 3.88s-1.63-3.63-.63-3.88zM57.25-19.63c1.35-.55 2.75 1 1.38 2.38s-3.5-1.5-1.38-2.38zM51-22.31c1.58.23.88 2.87-.25 3.37s-3.13-3.87.25-3.37zM65.75-23.31c.92-1.02 2.38 2.87.88 3.12s-2-1.87-.88-3.12zM60.88-28.06c1.28-.4 1.5 2.12.62 3.25s-3-2.5-.63-3.25zM52.88-29.06c2.35 1.04.24 3.87-1.26 2.87s.13-3.37 1.26-2.87zM58.63-35.19c1.66 0 1.24 2.38-.13 3.13s-1-3.13.13-3.13zM63.25-43.81c1.7 1 .38 3.62-1.25 3.5s-.25-4.38 1.25-3.5zM45.13-27.69c.87-1.75 1.87-.75 2.12 1.25s-3.38 1.25-2.13-1.25zM49.25-37.44c1.55-.89 2.75 2.38 1.25 2.88s-3-1.88-1.25-2.88zM42.38-37.44c1.93.26 1.5 2.13.24 2.5s-2.12-2.75-.24-2.5zM54.63-44.19c1.53-.58 2.24 2.75.74 3s-1.74-2.62-.74-3zM32.75-26.44c1.36-.73 2.38 2.63 1.13 3.25s-3-2.25-1.13-3.25zM37.5-33.81c1.54-.39 1.5 2.5.38 3s-2.88-2.38-.38-3zM11.38-31.94c.94-1.41 3.12.38 2.12 1.63s-3.38.25-2.13-1.63zM17.63-30.44c1.14-.57 2 1.88.75 2.5s-1.75-2-.75-2.5zM55.63-13.06c1.13-.57 2 1.87.74 2.5s-1.74-2-.74-2.5zM27.75-34.44c1.24-.62 2 2.63.88 3.38s-3.13-2.25-.88-3.38zM9.88-38.94c1-1 1.74 1 .74 2.38s-2.5-.63-.74-2.38zM18.38-38.81c.57-.97 1.62 1.62.75 2.37s-2-.25-.75-2.37zM36.63-43.44c.52-.65 1.5 2.13.37 2.75s-1.38-1.5-.38-2.75zM46.25-43.94c.98-.18 2 2.38.5 2.75s-1.88-2.5-.5-2.75zM61.75-50.56c1.89-.24 1.88 3 .38 3.25s-1.38-3.13-.38-3.25zM57.88-57.56c1.27.18 1.5 3.25-.26 3.12s-.62-3.25.26-3.12zM51.63-50.19c.98-.99 2 1.63.74 2.38s-1.62-1.5-.74-2.38zM30.25-46.81c.74-.68 1.63 1.37.63 2.5s-2.13-1.13-.63-2.5zM24.13-43.56c1.47-.98 1.87 2.25 1 2.87s-2.5-1.87-1-2.87zM18.5-47.69c1.17.18 1.5 2 .25 2.75s-1.88-3-.25-2.75zM11.75-46.44c1.03-.72 2 2.75.75 3.5s-2.88-2-.75-3.5zM44.88-50.06c.75-.67 2.37 1.62.62 2.25s-1.63-1.38-.63-2.25zM46.5-57.56c.98-.2 1.75 2 .25 2.37s-1.5-2.12-.25-2.37zM42.5-62.94c1.47-1.32 1 3 .5 2.88s-3.13-.5-.5-2.88zM36.63-60.44c.85-.21 1.24 2.13.24 2.75s-1.24-2.5-.24-2.75zM39.88-52.31c1.6-.32 1.5 1.75.37 2.5s-1.63-2.25-.38-2.5zM33.88-53.56c1.2-.32 1.5 1.37.37 2.25s-2.25-1.75-.38-2.25zM16.88-57.44c1.11.08 1.12 3.13-.25 3.25s-1.63-3.37.25-3.25zM23-53.56c1.66-.56 1.5 2.5.25 2.87s-1-2.62-.25-2.87zM29.75-58.81c1.28.15 1.25 3.25-.25 3.5s-1.88-3.75.25-3.5zM23-62.94c.98-.77 1.88 2.25.63 3.13s-2.38-1.75-.63-3.13z" style="fill:none;stroke:#00aeef;stroke-width:.5"/></svg>
